X: 1
T: Calliope House
C: Dave Richardson
M: 6/8
R: Jig
L: 1/8
S: https://thesession.org/tunes/15
K: E
|:eBB gBB|fBB gfe|cff f2e|fge cec|
BcB B2G|B2c e2f|1 gbg gfe|f3 f2g:|2 gbg fec|e3 ega||
|:b3 gbb|fbb gbb|a3 gag|fge cec|
BcB B2G|B2c e2f|1 gbg gfe|f3 fga:|2 gbg fed|e3 e2 f|] 
